icons/dbproj.svg

<svg xmlns="http://www.w3.org/2000/svg" viewBox="0 0 24 24"><g fill="#4db6ac" data-iconColor="DB Project"><path d="M12 19a1 1 0 0 1-1-1 1 1 0 0 1 1-1 1 1 0 0 1 1 1 1 1 0 0 1-1 1M4 5h16v11H4m16 2a2 2 0 0 0 2-2V5a2 2 0 0 0-2-2H4c-1.11 0-2 .89-2 2v11a2 2 0 0 0 2 2H0a2 2 0 0 0 2 2h20a2 2 0 0 0 2-2z"/><path fill="#ff8a65" d="M12 4.8c-2.652 0-4.8 1.074-4.8 2.4S9.348 9.6 12 9.6s4.8-1.074 4.8-2.4-2.148-2.4-4.8-2.4M7.2 8.4v1.8c0 1.326 2.148 2.4 4.8 2.4s4.8-1.074 4.8-2.4V8.4c0 1.326-2.148 2.4-4.8 2.4S7.2 9.726 7.2 8.4m0 3v1.8c0 1.326 2.148 2.4 4.8 2.4s4.8-1.074 4.8-2.4v-1.8c0 1.326-2.148 2.4-4.8 2.4s-4.8-1.074-4.8-2.4"/></g></svg>

<!--
  - The MIT License (MIT)
  -
  - Copyright (c) 2015-2024 Elior "Mallowigi" Boukhobza
  -
  - Permission is hereby granted, free of charge, to any person obtaining a copy
  - of this software and associated documentation files (the "Software"), to deal
  - in the Software without restriction, including without limitation the rights
  - to use, copy, modify, merge, publish, distribute, sublicense, and/or sell
  - copies of the Software, and to permit persons to whom the Software is
  - furnished to do so, subject to the following conditions:
  -
  - The above copyright notice and this permission notice shall be included in all
  - copies or substantial portions of the Software.
  -
  - THE SOFTWARE IS PROVIDED "AS IS", WITHOUT WARRANTY OF ANY KIND, EXPRESS OR
  - IMPLIED, INCLUDING BUT NOT LIMITED TO THE WARRANTIES OF MERCHANTABILITY,
  - FITNESS FOR A PARTICULAR PURPOSE AND NONINFRINGEMENT. IN NO EVENT SHALL THE
  - AUTHORS OR COPYRIGHT HOLDERS BE LIABLE FOR ANY CLAIM, DAMAGES OR OTHER
  - LIABILITY, WHETHER IN AN ACTION OF CONTRACT, TORT OR OTHERWISE, ARISING FROM,
  - OUT OF OR IN CONNECTION WITH THE SOFTWARE OR THE USE OR OTHER DEALINGS IN THE
  - SOFTWARE.
  -
  -->

<svg xmlns="http://www.w3.org/2000/svg" version="1.1" width="16px" height="16px" viewBox="0 0 24 24">
  <g fill="#4DB6AC" data-iconColor="DB Project">
    <path
        d="M12,19A1,1 0 0,1 11,18A1,1 0 0,1 12,17A1,1 0 0,1 13,18A1,1 0 0,1 12,19M4,5H20V16H4M20,18A2,2 0 0,0 22,16V5C22,3.89 21.1,3 20,3H4C2.89,3 2,3.89 2,5V16A2,2 0 0,0 4,18H0A2,2 0 0,0 2,20H22A2,2 0 0,0 24,18H20Z"/>
    <path fill="#FF8A65" transform="scale(0.6) translate(8 5)"
          d="M12,3C7.58,3 4,4.79 4,7C4,9.21 7.58,11 12,11C16.42,11 20,9.21 20,7C20,4.79 16.42,3 12,3M4,9V12C4,14.21 7.58,16 12,16C16.42,16 20,14.21 20,12V9C20,11.21 16.42,13 12,13C7.58,13 4,11.21 4,9M4,14V17C4,19.21 7.58,21 12,21C16.42,21 20,19.21 20,17V14C20,16.21 16.42,18 12,18C7.58,18 4,16.21 4,14Z"/>
  </g>
</svg>
